novelwriter/assets/icons/typicons_light/typ_export.svg

<?xml version="1.0" encoding="UTF-8" standalone="no"?>
<svg
   xmlns:dc="http://purl.org/dc/elements/1.1/"
   xmlns:cc="http://creativecommons.org/ns#"
   xmlns:rdf="http://www.w3.org/1999/02/22-rdf-syntax-ns#"
   xmlns:svg="http://www.w3.org/2000/svg"
   xmlns="http://www.w3.org/2000/svg"
   version="1.2"
   width="24"
   height="24"
   viewBox="0 0 24 24"
   id="svg1169">
  <metadata
     id="metadata13645">
    <rdf:RDF>
      <cc:Work
         rdf:about="">
        <dc:format>image/svg+xml</dc:format>
        <dc:type
           rdf:resource="http://purl.org/dc/dcmitype/StillImage" />
        <dc:title></dc:title>
      </cc:Work>
    </rdf:RDF>
  </metadata>
  <defs
     id="defs1173" />
  <path
     d="M 6.8888889,16.888889 V 17.5 c 2.0667778,-3.150889 4.4000001,-4.831444 7.3333331,-4.888889 v 3.666666 c 0,0.673444 0.624556,1.222223 1.397,1.222223 0.444889,0 0.825,-0.193112 1.079223,-0.477889 C 19.061,14.542222 24,9.5555555 24,9.5555555 c 0,0 -4.939,-4.9891115 -7.302778,-7.5007781 -0.254222,-0.2505555 -0.633111,-0.4436667 -1.078,-0.4436667 -0.772444,0 -1.397,0.5463333 -1.397,1.2222222 v 3.6666667 c -5.6955553,0 -7.3333331,5.9534434 -7.3333331,10.3888894 z m -3.6666667,5.5 H 20.333333 c 0.675889,0 1.222222,-0.547557 1.222222,-1.222223 V 13.77711 c -0.811555,0.826222 -1.66711,1.702555 -2.444444,2.501889 v 3.665444 H 4.4444445 V 5.2777775 H 13 V 2.833333 H 3.2222222 C 2.5463333,2.833333 2,3.3808886 2,4.0555552 V 21.166666 c 0,0.674666 0.5463333,1.222223 1.2222222,1.222223 z"
     id="path1167"
     style="stroke-width:1.22222;fill:#000000;fill-opacity:0.72156864" />
</svg>

<?xml version="1.0" encoding="UTF-8"?>
<svg width="24" height="24" version="1.2" viewBox="0 0 24 24" xmlns="http://www.w3.org/2000/svg">
 <path d="m6.8889 16.889v0.61111c2.0668-3.1509 4.4-4.8314 7.3333-4.8889v3.6667c0 0.67344 0.62456 1.2222 1.397 1.2222 0.44489 0 0.825-0.19311 1.0792-0.47789 2.3626-2.4799 7.3016-7.4666 7.3016-7.4666s-4.939-4.9891-7.3028-7.5008c-0.25422-0.25056-0.63311-0.44367-1.078-0.44367-0.77244 0-1.397 0.54633-1.397 1.2222v3.6667c-5.6956 0-7.3333 5.9534-7.3333 10.389zm-3.6667 5.5h17.111c0.67589 0 1.2222-0.54756 1.2222-1.2222v-7.3896c-0.81156 0.82622-1.6671 1.7026-2.4444 2.5019v3.6654h-14.667v-14.667h8.5556v-2.4444h-9.7778c-0.67589 0-1.2222 0.54756-1.2222 1.2222v17.111c0 0.67467 0.54633 1.2222 1.2222 1.2222z" fill-opacity=".72157" stroke-width="1.2222"/>
</svg>
